X:1
T:Irish Girl
M:4/4
L:1/8
K:F
 A,2| D2D-EF-DC-D| F2- G2 A2 A2| G2F-DC-A,G,-A,| C6 A,2| D2D-EF-DC-D|\
 F2- G2 A2F-A| G2 F2 D2 D2| D6A-B| c2A-G F2 G2| A2d-c e2d-c| A2G-F D2C-A,|\
 C6 A,2| D2D-EF-DC-D| F2 G2 A2F-A| G3 F D2 D2| D6|

